X: 588
T: Nro 8 Kyrie
C: Anonim
L: 1/4
M: 3/4
N: Derived from pl-kk--kk-i-382--023-001_anonim--nro-8-kyrie.krn
%%staves [1 2 3 4]
V: 1
V: 2 clef=alto
V: 3 clef=tenor
V: 4 clef=bass
K: C
[V:1] e2d | 
[V:2] G2F | 
[V:3] C2B, | 
[V:4] C,E,G, | 
[V:1] c2B | 
[V:2] E2D | 
[V:3] G,2G, | 
[V:4] CE,G, | 
[V:1] c/B//c// e/d/ c/B/ | 
[V:2] E/D//E// G/F/ E/D/ | 
[V:3] G,A,G, | 
[V:4] C,F,G, | 
[V:1] czc/d/ | 
[V:2] EzE/F/ | 
[V:3] G,zG, | 
[V:4] C,zG, | 
[V:1] cBd/e/ | 
[V:2] EDF/G/ | 
[V:3] G,G,G, | 
[V:4] G,G,G, | 
[V:1] dce | 
[V:2] FEG | 
[V:3] G,G,C | 
[V:4] CC,C, | 
[V:1] edc | 
[V:2] GFE | 
[V:3] CA,2 | 
[V:4] C,F,^F, | 
[V:1] B2z | 
[V:2] D2z | 
[V:3] G,2z | 
[V:4] G,2z | 
[V:1] g2g | 
[V:2] G2F | 
[V:3] z3 | 
[V:4] G,2G, | 
[V:1] B>d f/d/ | 
[V:2] B,>DF/D/ | 
[V:3] zzz/ B,/ | 
[V:4] B,,>D,F,/G,/ | 
[V:1] edz | 
[V:2] EGz | 
[V:3] CB,z | 
[V:4] C,G,z | 
[V:1] d/ B/GB | 
[V:2] D/F/ E/G/F | 
[V:3] B,/D/ C/E/D | 
[V:4] G,,/ G,/G,G, | 
[V:1] GGG | 
[V:2] E/G/ F/A/G | 
[V:3] C/E/ D/F/E | 
[V:4] CG,C, | 
[V:1] c/A/GG | 
[V:2] A/G//F//ED | 
[V:3] F/E//D//CB, | 
[V:4] F,G,G,, | 
[V:1] G2z | 
[V:2] E2z | 
[V:3] C2z | 
[V:4] C,2z | 
[V:1] g2g | 
[V:2] G2G | 
[V:3] z3 | 
[V:4] G,2G, | 
[V:1] B>d f/d/ | 
[V:2] B,>DF/G/ | 
[V:3] zzz/ B,/ | 
[V:4] B,,>D,F,/G,/ | 
[V:1] cdz | 
[V:2] GGz | 
[V:3] CB,z | 
[V:4] E,G,z | 
[V:1] d/ B/GB | 
[V:2] D/F/ E/G/F | 
[V:3] B,/D/ C/E/D | 
[V:4] G,,/ G,/G,G, | 
[V:1] GGG | 
[V:2] E/G/ F/A/G | 
[V:3] C/E/ D/F/E | 
[V:4] C,G,C | 
[V:1] c/A/GG | 
[V:2] A/G//F//ED | 
[V:3] F/E//D//CB, | 
[V:4] F,G,G,, | 
[V:1] G2G | 
[V:2] E2E | 
[V:3] C2C | 
[V:4] C,zC, | 
[V:1] A3 | 
[V:2] F3 | 
[V:3] C3 | 
[V:4] C,3 | 
[V:1] G3 |]  
[V:2] E3 |]  
[V:3] C3 |]  
[V:4] C,3 |]  
[V:1] [M:4/4]c2GG [I:setbarnb 26]| 
[V:2] [M:C|]G2F/E/ D/C/ | 
[V:3] [M:4/4]E2D/C/ B,/C/ | 
[V:4] [M:4/4]C,2B,,C,/E,/ | 
[V:1] GGzB | 
[V:2] CB,zF | 
[V:3] EDzD | 
[V:4] G,G,,z/ G,/A,/B,/ | 
[V:1] GGzG | 
[V:2] FEzG | 
[V:3] DCzE | 
[V:4] CC,zC, | 
[V:1] c2AG | 
[V:2] GA/G/G/F/ F/E/ | 
[V:3] EF/E/ E/D/ D/C/ | 
[V:4] C,2B,,C, | 
[V:1] G2z2 | 
[V:2] D2z2 | 
[V:3] B,3z | 
[V:4] G,2z2 | 
[V:1] G>A_BB | 
[V:2] E>FGG | 
[V:3] C2CC | 
[V:4] C,2E,C, | 
[V:1] c/A/ G/_B/A2 | 
[V:2] A/F/ E/G/F2 | 
[V:3] C2C2 | 
[V:4] F,C,/A,,/F,,2 | 
[V:1] A>=Bcc | 
[V:2] ^F>GAA | 
[V:3] D2DD | 
[V:4] D,2^F,D, | 
[V:1] d/B/ A/c/B2 | 
[V:2] B/G/ ^F/A/G2 | 
[V:3] D2D2 | 
[V:4] G,D,/B,,/G,,2 | 
[V:1] B>cdd | 
[V:2] D>E=FF | 
[V:3] D>CB,B, | 
[V:4] G,,2G,G, | 
[V:1] c/e/ d/f/ef | 
[V:2] E/G/ F/A/GA | 
[V:3] G,2CC | 
[V:4] C,B,,C,F, | 
[V:1] ef/d/cd/B/ | 
[V:2] GA/F/EF/D/ | 
[V:3] CA,G,2 | 
[V:4] E,F,G,2 | 
[V:1] c2z2 | 
[V:2] E2z2 | 
[V:3] G,3z | 
[V:4] C,4 | 
[V:1] G>A_BB | 
[V:2] E>FGG | 
[V:3] C2CC | 
[V:4] C,2E,C, | 
[V:1] c/A/ G/_B/A2 | 
[V:2] A/F/ E/G/Fz | 
[V:3] C2C2 | 
[V:4] F,C,/A,,/F,,2 | 
[V:1] A>=Bcc | 
[V:2] ^F>GAA | 
[V:3] D2DD | 
[V:4] D,2^F,D, | 
[V:1] d/B/ A/c/B2 | 
[V:2] B/G/ ^F/A/G2 | 
[V:3] D2D2 | 
[V:4] G,D,/B,,/G,,2 | 
[V:1] B>cdd | 
[V:2] D>E=FF | 
[V:3] D>CB,B, | 
[V:4] G,,2G,G, | 
[V:1] c/e/ d/f/ef | 
[V:2] E/G/ F/A/GA | 
[V:3] G,2CC | 
[V:4] C,B,,C,F, | 
[V:1] ef/d/cd/B/ | 
[V:2] GA/F/EF/D/ | 
[V:3] CA,G,2 | 
[V:4] E,F,G,2 | 
[V:1] c4 |]  
[V:2] E4 |]  
[V:3] G,3z |]  
[V:4] C,4 |]  

